packages/core/src/svgs/tokens/mono/3ULL.svg

<svg width="24" height="24" viewBox="0 0 24 24" fill="none" xmlns="http://www.w3.org/2000/svg">
<path d="M10.7545 9.63237C10.1455 8.45292 8.06364 8.45292 5.63636 7.85463C3.7 7.38454 4.01819 5.29052 4.42728 4.30762C2.48181 4.7777 2 5.88027 2 6.87172C2 10.4187 6.39091 10.8205 7 11.4016C7.48181 11.8802 7.2 12.3931 7 12.5982C6.51819 14.0085 8.26364 15.0256 9.27273 15.4187V17.9829C9.27273 18.5811 10.3 19.6922 12 19.6922C13.7 19.6922 14.7272 18.5811 14.7272 17.9829V15.4187C14.7272 14.8205 17.6091 13.7777 17 12.5982C16.5181 11.641 16.8 11.4016 17 11.4016C19.4272 10.8205 22 8.15377 22 6.87172C22 5.58967 21.5455 4.73497 19.7273 4.30762C20.1819 4.73497 20.4272 6.91445 18.9727 7.85463C17.1545 9.04265 13.8545 8.45292 13.2455 9.63237C12.7636 10.5726 13.0455 12.3931 13.2455 13.1794L15.3364 12.5896C15.3364 13.7777 14.4819 14.3675 13.8819 14.3675C13.2727 14.3675 12.4545 15.2564 12.4545 15.8461C12.4545 16.4444 12.4545 17.5555 12 17.5555C11.5455 17.5555 11.5455 16.2392 11.5455 15.8461C11.5455 15.2477 11.0909 14.3675 10.1272 14.3675C9.15455 14.3675 8.87273 13.1794 8.87273 12.5896L10.7545 13.188C11.1545 12.3931 11.2364 10.5811 10.7545 9.63237Z" fill="white"/>
</svg>

<svg xmlns="http://www.w3.org/2000/svg" width="24" height="24" fill="none" viewBox="0 0 24 24">
    <path fill="#fff" d="M10.755 9.632c-.61-1.18-2.691-1.18-5.119-1.777C3.7 7.385 4.018 5.29 4.427 4.308 2.482 4.778 2 5.88 2 6.872c0 3.547 4.39 3.948 5 4.53.482.478.2.991 0 1.196-.482 1.41 1.264 2.428 2.273 2.82v2.565c0 .598 1.027 1.71 2.727 1.71s2.727-1.112 2.727-1.71v-2.564c0-.599 2.882-1.641 2.273-2.82-.482-.958-.2-1.197 0-1.197 2.427-.582 5-3.248 5-4.53s-.454-2.137-2.273-2.564c.455.427.7 2.606-.754 3.547-1.819 1.188-5.118.598-5.727 1.777-.482.94-.2 2.761 0 3.547l2.09-.59c0 1.189-.854 1.778-1.454 1.778-.61 0-1.428.89-1.428 1.48 0 .597 0 1.708-.454 1.708s-.454-1.316-.454-1.709c0-.598-.455-1.479-1.419-1.479-.972 0-1.254-1.188-1.254-1.777l1.882.598c.4-.795.481-2.607 0-3.556"/>
</svg>
